X:1
T:Vidi Speciosam
T:Felice Anerio edit BMarble
T:Vidi Speciosam
T:Copyright © 2015 by The Choral Public Domain Library. Edition may be freely distributed, duplicated, performed or recorded.
T:Copyright © 2015 by The Choral Public Domain Library. Edition may be freely distributed, duplicated, performed or recorded.
T:Copyright © 2015 by The Choral Public Domain Library. Edition may be freely distributed, duplicated, performed or recorded.
T:Copyright © 2015 by The Choral Public Domain Library. Edition may be freely distributed, duplicated, performed or recorded.
T:Copyright © 2015 by The Choral Public Domain Library. Edition may be freely distributed, duplicated, performed or recorded.
C:Felice Anerio
C:edit BMarble
Z:Copyright © 2015 by The Choral Public Domain Library. Edition may be freely distributed, duplicated, performed or recorded.
%%score [ 1 2 3 4 ]
L:1/8
Q:1/2=88
M:4/2
K:D
V:1 treble nm="SOPRANO" snm="S."
V:2 treble nm="ALTO" snm="A."
V:3 treble-8 transpose=-12 nm="TENOR" snm="T."
V:4 bass nm="BASS" snm="B."
V:1
"^Matins, Assumption: I saw the fair one rising like a dove above the streams of water:whose priceless fragrance clung to her garments.And as on a spring day, she was surrounded by roses and lily-of-the-valley.Vs.  Who is this who rises from the desert like a pillar of smoke from incense of myrrh and frankincense?" B12 B4 | %1
w: Vi- di|
 B6 B2 A8 | A4 A4 B4 B4 | A2 G2 F2 A2 G2 A2 B2 c2 | d4 B4 z4 A4- | A2 A2 ^G4 A4 A4- | %6
w: spe- ci- o-|sam si- cut co-|lum- * * * * * * *|* bam a-|* scen- den- tem de-|
 A2 A2 A4 =G4 E2 E2 | F8 F4 G4 | G4 F4 G4 A4 | B6 B2 A4 B4- | B4 B4 G4 F4 | (G2 A2 B2 G2 A8) | %12
w: * su- per ri- vos a-|qua- rum: cu-|jus in- ae- sti-|ma- bi- lis o-|* dor e- rat|ni- * * * *|
 F4 B4 A8- | A4 F4 G8 ||[M:3/1]"^rit." F4 B4 A8 G4 F4 | ^G16 ||S[Q:1/2=88] =G8 B8- | B4 A4 G4 F4 | %18
w: mis in ve-|* sti- men-|tis e- * * *|jus?|Et si-|* cut di- es|
 (E2 F2 G2 A2 B4) B4 | B4 A4 B4 G4 | A8 B8 | z4 A4 G6 G2 | G4 A4 (G6 A2 |"^rit." B12) B4 | %24
w: ver- * * * * ni|cir- cum- da- bant|e- am,|et li- li-|a con- val- *|* li-|
 B16!fine! |][Q:1/2=92] B12 A4 | G8 F8 | z4 E2 F2 G2 A2 B2 G2 | A4 F4 G8 | F4 G4 E4 A4- | %30
w: um.|Quae est|i- sta,|quae _ _ _ _ _|_ a- scen-|de per de- ser-|
 A2 G2 F2 E2 F2 G2 A2 F2 | G2 A2 B8 ^A4 | B4 B6 B2 B4 | B4 A4 (F8 | G8) F8 | z16 | c8 d4 e4 | %37
w: ||tum si- cut vir-|gu- la fu-|* mi,||ex a- ro-|
 B4 c4 d4 d4- | d4 A4 B8 |"^rit." =c2 B2 B8 ^A4 | B16!D.S.! |] %41
w: ma- ti- bus myr-|* rhae et|thu- * * *|ris?|
V:2
 z8 F6 F2 | F4 G4 E8 | E4 F4 G4 G4 | F8 E8 | z8 E6 E2 | E4 D4 F6 F2 | F4 F4 (E2 D2) (C2 B,2) | %7
w: Vi- di|spe- ci- o-|sam si- cut co-|lum- bam|a- scen-|den- tem de- su-|per ri- vos _ a- *|
 C8 B,8 | z4 F4 E4 D4 | G2 G2 (D2 E2 F6) E2 | D8 z8 | z8 F8 | A4 G4 F8 | E4 ^D4 E8 || %14
w: qua- rum:|cu- jus in-|ae- sti- ma- * * bi-|lis|o-|dor e- rat|ni- mis in|
[M:3/1] =D4 G6 F2 E8 ^D4 | E16 || E8 =D4 G4 | G4 F4 (E4 D4) | E8 z8 | D8 D4 E4 | F8 E8 | %21
w: ve- sti- men- tis e-|jus?|Et si- cut|di- es ver- *|ni|flo- res ro-|sa- rum,|
 z4 F4 D6 D2 | D12 B,4- | B,4 E8 ^D4 | E16 |] z16 | E12 D4 | =C8 B,8 | (A,2 B,2 ^C2 D2 E4) B,4 | %29
w: et li- li-|a con-|* val- li-|um.||Quae est|i- sta,|quae _ _ _ _ a-|
 D8 C8 | z8 B,4 C4 | (D4 C2 B,2) C8 | z4 G6 G2 G4 | D4 C4 (^D2 E4 D2) | E4 G4 A4 B4 | %35
w: scen- de|per de-|ser- * * tum|si- cut vir-|gu- la fu- * *|mi ex a- ro-|
 E4 F4 (G6 F2 | E8) z8 | z4 A8 F4- | F4 F8 D4 | E4 (E6 D2 C4) | B,16 |] %41
w: ma- ti- bus _|_|myr- rhae,|_ myr- rhae|et thu- * *|ris?|
V:3
 z8 ^d6 d2 | ^d4 e4 c8 | c4 =d4 d4 d4 | d8 B8 | z8 c6 c2 | c4 B4 c6 c2 | c4 d4 B4 B4- | B4 ^A4 B8 | %8
w: Vi- di|spe- ci- o-|sam si- cut co-|lum- bam|a- scen-|den- tem de- su-|per ri- vos a-|* qua- rum:|
 B8 B4 =A4 | d4 B4 c4 d4 | B16 | z8 c8 | d6 d2 d4 A4 | c4 (B6 A2 B2 c2) ||[M:3/1] d2 B2 d8 c4 B8 | %15
w: cu- jus in-|ae- sti- ma- bi-|lis|o-|dor e- rat ni-|mis in _ _ _|ve- sti- men- tis e-|
 B16 || z4 B8 d4- | d4 d4 B4 B4 | G8 (G8 | D8) z4 G4 | F4 F4 (G4 E4) | D4 d4 B6 B2 | B4 A4 B6 A2 | %23
w: jus?|Et si-|* cut di- es|ver- ni|_ flo-|res ro- sa- *|rum et li- li-|a con- val- *|
 G6 FE F4 F4 | E16 |] z16 | z8 B8- | B4 A4 G8 | F8 (E2 F2 G2 A2 | B4) G4 A8 | D4 d8 A4 | %31
w: * * * * li-|um.||Quae|_ est i-|sta, quae _ _ _|_ a- scen-|de per de-|
 (B6 AG F8) | B4 E6 E2 E4 | G4 A4 B8 | E4 e4 d4 B4 | c4 d4 G8 | z4 A4 G4 E4 | G4 A4 D8 | d8 B8 | %39
w: ser- * * *|tum si- cut vir-|gu- la fu-|mi ex a- ro-|ma- ti- bus,|ex a- ro-|ma- ti- bus|myr- rhae|
 z4 E4 F8 | B16 |] %41
w: et thu-|ris?|
V:4
 z8 B,6 B,2 | B,4 E,4 A,8 | A,4 D,4 (G,2 A,2 B,2 C2 | D4) D,4 (E,2 F,2 G,2 A,2 | B,4) B,4 A,6 A,2 | %5
w: Vi- di|spe- ci- o-|sam si- cut _ _ _|_ co- lum- * * *|* bam a- scen-|
 A,4 B,4 F,6 F,2 | F,4 D,4 E,4 G,4 | F,8 B,,4 E,4 | E,4 D,4 E,4 F,4 | G,6 G,2 F,4 B,4- | %10
w: den- tem de- su-|per ri- vos a-|qua- rum: cu-|jus in- ae- sti-|ma- bi- lis o-|
 (B,2 A,2 G,2 F,2 E,4) D,4 | E,4 G,4 F,8 | F,4 G,4 (D,2 E,2 F,2 G,2 | A,4) B,4 (E,2 F,2 G,2 A,2 || %14
w: * * * * * dor|e- rat ni-|mis in ve- * * *|* sti- men- * * *|
[M:3/1] B,4) G,4 (A,8 B,8) | E,16 || E,8 G,8- | G,4 D,4 E,4 B,,4 | =C,8 G,,4 G,4- | %19
w: * tis e- *|jus?|Et si-|* cut di- es|ver- ni cir-|
 G,4 F,4 G,4 E,4 | D,8 G,8 | z4 D,4 G,6 G,2 | G,4 F,4 G,6 F,2 | E,6 D,=C, B,,8 | E,16 |] z16 | %26
w: * cum- da- bant|e- am,|et li- li-|a con- val- *|* * * li-|um.||
 z16 | z16 | z16 | z16 | z16 | z16 | z16 | z16 | z16 | z16 | z16 | z16 | z16 | z16 | z16 |] %41
w: |||||||||||||||

